X:414
T:Reel 414
M:4/4
K:Dmaj
L:1/8
 (3dBc |d2FG A2Bc|defd Bcd2|DEFG A2ed|fgaf egfe|DEFG A2ed| (3Bcd AG FEEG|DEFG AF (3FEF |D2FE D2|de|fgfd c2ec|dcdB A2FG|AGAB c2Ad|fedc d2 (3ABc |defg afed|cecB AcBA|dcdB cdeg|fagf d2|
